img/logo.svg

<svg width="160" height="31" viewBox="0 0 160 31" fill="none" xmlns="http://www.w3.org/2000/svg">
<path d="M25.68 27.04C25.3333 27.4133 24.7867 27.8 24.04 28.2C23.2933 28.5733 22.4267 28.92 21.44 29.24C20.48 29.56 19.4933 29.8133 18.48 30C17.4667 30.2133 16.5067 30.32 15.6 30.32C13.2 30.32 11.04 29.9733 9.12 29.28C7.2 28.56 5.56 27.5733 4.2 26.32C2.84 25.04 1.8 23.5333 1.08 21.8C0.36 20.0667 2.98023e-08 18.1733 2.98023e-08 16.12C2.98023e-08 13.4267 0.4 11.0933 1.2 9.12C2.02667 7.12 3.13333 5.46667 4.52 4.16C5.93333 2.82667 7.54667 1.84 9.36 1.2C11.2 0.559999 13.12 0.239999 15.12 0.239999C17.0133 0.239999 18.7467 0.453332 20.32 0.879998C21.8933 1.28 23.2267 1.78666 24.32 2.4L22.44 7.8C21.96 7.53333 21.32 7.26667 20.52 7C19.72 6.73333 18.9067 6.52 18.08 6.36C17.2533 6.17333 16.52 6.08 15.88 6.08C14.28 6.08 12.8667 6.28 11.64 6.68C10.4133 7.08 9.37333 7.68 8.52 8.48C7.69333 9.28 7.06667 10.28 6.64 11.48C6.21333 12.6533 6 14.0267 6 15.6C6 16.9867 6.24 18.24 6.72 19.36C7.2 20.4533 7.86667 21.3867 8.72 22.16C9.6 22.9333 10.6267 23.52 11.8 23.92C13 24.32 14.32 24.52 15.76 24.52C16.5867 24.52 17.3467 24.4667 18.04 24.36C18.7333 24.2267 19.32 24.0267 19.8 23.76V20.2H14.72V14.6H25.68V27.04ZM38.7088 30.48C37.0821 30.48 35.6021 30.16 34.2688 29.52C32.9621 28.8533 31.9221 27.84 31.1488 26.48C30.3754 25.12 29.9888 23.3867 29.9888 21.28C29.9888 19.3067 30.3888 17.6 31.1888 16.16C31.9888 14.72 33.0421 13.6133 34.3487 12.84C35.6554 12.04 37.0421 11.64 38.5088 11.64C40.2421 11.64 41.5488 11.9333 42.4288 12.52C43.3354 13.08 44.0821 13.7067 44.6688 14.4L44.4288 15.08L44.9488 12.52H50.1488V30H44.5488V26.2L44.9888 27.4C44.9354 27.4 44.7754 27.56 44.5088 27.88C44.2421 28.1733 43.8421 28.5333 43.3088 28.96C42.8021 29.36 42.1621 29.7067 41.3888 30C40.6421 30.32 39.7488 30.48 38.7088 30.48ZM40.3088 25.92C40.9754 25.92 41.5754 25.8267 42.1088 25.64C42.6421 25.4267 43.1088 25.1333 43.5088 24.76C43.9088 24.36 44.2554 23.8667 44.5488 23.28V19C44.3354 18.4133 44.0154 17.92 43.5888 17.52C43.1621 17.0933 42.6554 16.7733 42.0688 16.56C41.4821 16.32 40.8288 16.2 40.1088 16.2C39.3088 16.2 38.5621 16.4133 37.8688 16.84C37.2021 17.24 36.6688 17.8 36.2688 18.52C35.8688 19.24 35.6688 20.0667 35.6688 21C35.6688 21.9333 35.8821 22.7733 36.3088 23.52C36.7354 24.2667 37.2954 24.8533 37.9888 25.28C38.7088 25.7067 39.4821 25.92 40.3088 25.92ZM60.9991 12.52L61.4391 15.6L61.3591 15.36C62.0524 14.1867 62.9191 13.28 63.9591 12.64C64.9991 11.9733 66.2524 11.64 67.7191 11.64C68.6791 11.64 69.5191 11.7733 70.2391 12.04C70.9857 12.3067 71.6124 12.7067 72.1191 13.24C72.6257 13.7467 72.9724 14.4133 73.1591 15.24L72.9591 15.28C73.7057 14.1867 74.5991 13.3067 75.6391 12.64C76.7057 11.9733 77.8124 11.64 78.9591 11.64C80.6924 11.64 82.0657 12.1333 83.0791 13.12C84.1191 14.08 84.6524 15.3333 84.6791 16.88V30H79.1191V19.2C79.0924 18.4267 78.9724 17.8 78.7591 17.32C78.5457 16.8133 78.0524 16.5333 77.2791 16.48C76.3724 16.48 75.5991 16.8 74.9591 17.44C74.3457 18.0533 73.8791 18.8533 73.5591 19.84C73.2657 20.8 73.1191 21.8 73.1191 22.84V30H67.5191V19.2C67.4924 18.4267 67.3457 17.8 67.0791 17.32C66.8391 16.8133 66.3324 16.5333 65.5591 16.48C64.6791 16.48 63.9324 16.8 63.3191 17.44C62.7324 18.0533 62.2791 18.84 61.9591 19.8C61.6657 20.76 61.5191 21.7467 61.5191 22.76V30H55.9191V12.52H60.9991ZM90.4503 12.52H96.0503V30H90.4503V12.52ZM90.3303 6.32C90.3303 5.49333 90.6503 4.81333 91.2903 4.28C91.957 3.74667 92.6636 3.48 93.4103 3.48C94.157 3.48 94.837 3.74667 95.4503 4.28C96.0903 4.81333 96.4103 5.49333 96.4103 6.32C96.4103 7.14667 96.0903 7.82667 95.4503 8.36C94.837 8.86667 94.157 9.12 93.4103 9.12C92.6636 9.12 91.957 8.86667 91.2903 8.36C90.6503 7.82667 90.3303 7.14667 90.3303 6.32ZM109.738 18.08L113.058 12.52H118.618L111.698 22.12L109.738 18.08ZM119.578 30H112.818L99.3375 12.52H106.218L119.578 30ZM109.018 24.4L105.098 30H99.5375L106.458 20.64L109.018 24.4Z" fill="url(#paint0_linear_10_416)"/>
<path d="M122.152 18.4H129.672V23.28H122.152V18.4Z" fill="#2E2594"/>
<path d="M159.899 27.04C159.552 27.4133 159.005 27.8 158.259 28.2C157.512 28.5733 156.645 28.92 155.659 29.24C154.699 29.56 153.712 29.8133 152.699 30C151.685 30.2133 150.725 30.32 149.819 30.32C147.419 30.32 145.259 29.9733 143.339 29.28C141.419 28.56 139.779 27.5733 138.419 26.32C137.059 25.04 136.019 23.5333 135.299 21.8C134.579 20.0667 134.219 18.1733 134.219 16.12C134.219 13.4267 134.619 11.0933 135.419 9.12C136.245 7.12 137.352 5.46667 138.739 4.16C140.152 2.82667 141.765 1.84 143.579 1.2C145.419 0.559999 147.339 0.239999 149.339 0.239999C151.232 0.239999 152.965 0.453332 154.539 0.879998C156.112 1.28 157.445 1.78666 158.539 2.4L156.659 7.8C156.179 7.53333 155.539 7.26667 154.739 7C153.939 6.73333 153.125 6.52 152.299 6.36C151.472 6.17333 150.739 6.08 150.099 6.08C148.499 6.08 147.085 6.28 145.859 6.68C144.632 7.08 143.592 7.68 142.739 8.48C141.912 9.28 141.285 10.28 140.859 11.48C140.432 12.6533 140.219 14.0267 140.219 15.6C140.219 16.9867 140.459 18.24 140.939 19.36C141.419 20.4533 142.085 21.3867 142.939 22.16C143.819 22.9333 144.845 23.52 146.019 23.92C147.219 24.32 148.539 24.52 149.979 24.52C150.805 24.52 151.565 24.4667 152.259 24.36C152.952 24.2267 153.539 24.0267 154.019 23.76V20.2H148.939V14.6H159.899V27.04Z" fill="#B53071"/>
<defs>
<linearGradient id="paint0_linear_10_416" x1="89.3896" y1="-4.57435" x2="88.7461" y2="104.154" gradientUnits="userSpaceOnUse">
<stop stop-color="#2E2594"/>
<stop offset="1" stop-color="#F73B6C"/>
</linearGradient>
</defs>
</svg>

<svg width="160" height="31" fill="none" xmlns="http://www.w3.org/2000/svg"><path d="M25.68 27.04c-.347.373-.893.76-1.64 1.16-.747.373-1.613.72-2.6 1.04-.96.32-1.947.573-2.96.76-1.013.213-1.973.32-2.88.32-2.4 0-4.56-.347-6.48-1.04-1.92-.72-3.56-1.707-4.92-2.96a12.969 12.969 0 0 1-3.12-4.52C.36 20.067 0 18.173 0 16.12c0-2.693.4-5.027 1.2-7 .827-2 1.933-3.653 3.32-4.96A13.558 13.558 0 0 1 9.36 1.2C11.2.56 13.12.24 15.12.24c1.893 0 3.627.213 5.2.64 1.573.4 2.907.907 4 1.52l-1.88 5.4c-.48-.267-1.12-.533-1.92-.8-.8-.267-1.613-.48-2.44-.64-.827-.187-1.56-.28-2.2-.28-1.6 0-3.013.2-4.24.6-1.227.4-2.267 1-3.12 1.8-.827.8-1.453 1.8-1.88 3C6.213 12.653 6 14.027 6 15.6c0 1.387.24 2.64.72 3.76a8.149 8.149 0 0 0 2 2.8 9.018 9.018 0 0 0 3.08 1.76c1.2.4 2.52.6 3.96.6.827 0 1.587-.053 2.28-.16.693-.133 1.28-.333 1.76-.6V20.2h-5.08v-5.6h10.96v12.44Zm13.029 3.44c-1.627 0-3.107-.32-4.44-.96-1.307-.667-2.347-1.68-3.12-3.04-.774-1.36-1.16-3.093-1.16-5.2 0-1.973.4-3.68 1.2-5.12.8-1.44 1.853-2.547 3.16-3.32 1.306-.8 2.693-1.2 4.16-1.2 1.733 0 3.04.293 3.92.88.906.56 1.653 1.187 2.24 1.88l-.24.68.52-2.56h5.2V30h-5.6v-3.8l.44 1.2c-.054 0-.214.16-.48.48-.267.293-.667.653-1.2 1.08-.507.4-1.147.747-1.92 1.04-.747.32-1.64.48-2.68.48Zm1.6-4.56c.666 0 1.266-.093 1.8-.28.533-.213 1-.507 1.4-.88.4-.4.746-.893 1.04-1.48V19a3.75 3.75 0 0 0-.96-1.48 4.103 4.103 0 0 0-1.52-.96c-.587-.24-1.24-.36-1.96-.36-.8 0-1.547.213-2.24.64-.667.4-1.2.96-1.6 1.68-.4.72-.6 1.547-.6 2.48s.213 1.773.64 2.52a4.844 4.844 0 0 0 1.68 1.76 4.47 4.47 0 0 0 2.32.64Zm20.69-13.4.44 3.08-.08-.24c.693-1.173 1.56-2.08 2.6-2.72 1.04-.667 2.293-1 3.76-1 .96 0 1.8.133 2.52.4a4.751 4.751 0 0 1 1.88 1.2c.507.507.853 1.173 1.04 2l-.2.04c.747-1.093 1.64-1.973 2.68-2.64 1.067-.667 2.173-1 3.32-1 1.733 0 3.107.493 4.12 1.48 1.04.96 1.573 2.213 1.6 3.76V30h-5.56V19.2c-.027-.773-.147-1.4-.36-1.88-.213-.507-.707-.787-1.48-.84-.907 0-1.68.32-2.32.96-.613.613-1.08 1.413-1.4 2.4-.293.96-.44 1.96-.44 3V30h-5.6V19.2c-.027-.773-.173-1.4-.44-1.88-.24-.507-.747-.787-1.52-.84-.88 0-1.627.32-2.24.96-.587.613-1.04 1.4-1.36 2.36-.293.96-.44 1.947-.44 2.96V30h-5.6V12.52H61Zm29.451 0h5.6V30h-5.6V12.52Zm-.12-6.2c0-.827.32-1.507.96-2.04.667-.533 1.374-.8 2.12-.8.747 0 1.427.267 2.04.8.64.533.96 1.213.96 2.04s-.32 1.507-.96 2.04c-.613.507-1.293.76-2.04.76-.746 0-1.453-.253-2.12-.76-.64-.533-.96-1.213-.96-2.04Zm19.408 11.76 3.32-5.56h5.56l-6.92 9.6-1.96-4.04Zm9.84 11.92h-6.76l-13.48-17.48h6.88L119.578 30Zm-10.56-5.6-3.92 5.6h-5.56l6.92-9.36 2.56 3.76Z" fill="url(#a)"/><path d="M122.152 18.4h7.52v4.88h-7.52V18.4Z" fill="#2E2594"/><path d="M159.899 27.04c-.347.373-.894.76-1.64 1.16-.747.373-1.614.72-2.6 1.04-.96.32-1.947.573-2.96.76-1.014.213-1.974.32-2.88.32-2.4 0-4.56-.347-6.48-1.04-1.92-.72-3.56-1.707-4.92-2.96a12.969 12.969 0 0 1-3.12-4.52c-.72-1.733-1.08-3.627-1.08-5.68 0-2.693.4-5.027 1.2-7 .826-2 1.933-3.653 3.32-4.96a13.55 13.55 0 0 1 4.84-2.96c1.84-.64 3.76-.96 5.76-.96 1.893 0 3.626.213 5.2.64 1.573.4 2.906.907 4 1.52l-1.88 5.4c-.48-.267-1.12-.533-1.92-.8-.8-.267-1.614-.48-2.44-.64-.827-.187-1.56-.28-2.2-.28-1.6 0-3.014.2-4.24.6-1.227.4-2.267 1-3.12 1.8-.827.8-1.454 1.8-1.88 3-.427 1.173-.64 2.547-.64 4.12 0 1.387.24 2.64.72 3.76a8.14 8.14 0 0 0 2 2.8 9.011 9.011 0 0 0 3.08 1.76c1.2.4 2.52.6 3.96.6.826 0 1.586-.053 2.28-.16.693-.133 1.28-.333 1.76-.6V20.2h-5.08v-5.6h10.96v12.44Z" fill="#B53071"/><defs><linearGradient id="a" x1="89.39" y1="-4.574" x2="88.746" y2="104.154" gradientUnits="userSpaceOnUse"><stop stop-color="#2E2594"/><stop offset="1" stop-color="#F73B6C"/></linearGradient></defs></svg>
